X:4729
L:1/8
M:4/4
K:C
 c>dg>ede/g/AG | cB/A/G/A/G/E/ G4 | c>dg>ede/g/AG | cB/A/G/A/G/E/ G4 | G>A c2 d g2 e/d/ | 
 cBdAGz/A/FE | D>EGAccED | GG/E/DE/D/ C4 |]

